X: 30147
T: Old Copperplate, The
R: reel
M: 4/4
K: Adorian
|:A2eA cAeA|aged cAFA|G2dG BGdG|gedc BAGB|
A2eA cAeA|aged cAGB|ABcd edeg|aged cAA2:|
|:ageg a2eg|aged cAAe|gfef g2ef|gfaf gedg|
ageg a2eg|aged cAG2|ABcd edeg|aged cAA2:|

